svg/pass.svg

<?xml version="1.0" encoding="UTF-8"?>
<svg xmlns="http://www.w3.org/2000/svg" xmlns:xlink="http://www.w3.org/1999/xlink" width="32" height="32" viewBox="0 0 32 32">
<path fill-rule="nonzero" fill="rgb(0%, 0%, 0%)" fill-opacity="1" d="M 16 0 C 14.820312 0 13.863281 0.828125 13.570312 1.921875 L 5.761719 1.921875 C 4.703125 1.921875 3.84375 2.78125 3.839844 3.839844 L 3.839844 28.800781 C 3.839844 29.855469 4.703125 30.71875 5.761719 30.71875 L 26.238281 30.71875 C 27.296875 30.71875 28.15625 29.859375 28.160156 28.800781 L 28.160156 3.839844 C 28.15625 2.78125 27.296875 1.921875 26.238281 1.921875 L 18.429688 1.921875 C 18.136719 0.828125 17.179688 0 16 0 M 16 1.28125 C 16.714844 1.28125 17.28125 1.84375 17.28125 2.558594 C 17.28125 2.914062 17.566406 3.199219 17.921875 3.199219 L 20.480469 3.199219 L 20.480469 5.121094 L 11.519531 5.121094 L 11.519531 3.199219 L 14.078125 3.199219 C 14.433594 3.199219 14.71875 2.914062 14.71875 2.558594 C 14.714844 2.21875 14.851562 1.894531 15.089844 1.652344 C 15.332031 1.414062 15.660156 1.277344 16 1.28125 M 21.703125 12.800781 C 21.875 12.789062 22.042969 12.84375 22.175781 12.953125 C 22.445312 13.179688 22.476562 13.582031 22.246094 13.855469 L 15.207031 22.175781 C 15.097656 22.308594 14.941406 22.386719 14.769531 22.398438 L 14.71875 22.398438 C 14.566406 22.402344 14.417969 22.347656 14.304688 22.246094 L 9.824219 18.40625 C 9.695312 18.296875 9.617188 18.140625 9.601562 17.972656 C 9.589844 17.800781 9.644531 17.632812 9.753906 17.503906 C 9.984375 17.234375 10.386719 17.203125 10.65625 17.433594 L 14.648438 20.859375 L 21.273438 13.023438 C 21.382812 12.894531 21.535156 12.816406 21.703125 12.800781 M 21.703125 12.800781 "/>
</svg>

<svg role="img" viewBox="0 0 32 32" height="32" width="32" xmlns="http://www.w3.org/2000/svg"><path d="M16 0c-1.18 0-2.137.828-2.43 1.922H5.762A1.925 1.925 0 0 0 3.84 3.84V28.8c0 1.055.863 1.919 1.922 1.919h20.476A1.925 1.925 0 0 0 28.16 28.8V3.84a1.925 1.925 0 0 0-1.922-1.918H18.43C18.137.828 17.18 0 16 0m0 1.281c.715 0 1.281.563 1.281 1.278 0 .355.285.64.64.64h2.56v1.922H11.52V3.2h2.558c.356 0 .64-.285.64-.64A1.27 1.27 0 0 1 16 1.282m5.703 11.52a.67.67 0 0 1 .473.152c.27.227.3.629.07.902l-7.039 8.32a.622.622 0 0 1-.437.223h-.051a.612.612 0 0 1-.414-.152l-4.48-3.84a.638.638 0 0 1-.071-.902c.23-.27.633-.3.902-.07l3.992 3.425 6.625-7.836a.629.629 0 0 1 .43-.222m0 0"/></svg>
